proprietary/assets/icons/op-kantoor/lade-archiefkast.svg

<svg height="64" viewBox="0 0 64 64" width="64" xmlns="http://www.w3.org/2000/svg"><path d="m0 0h64v64h-64z" fill="none"/><path d="m7 23v33c0 .5523.4477 1 1 1h48c.5523 0 1-.4477 1-1v-33c0-.5523-.4477-1-1-1h-48c-.5523 0-1 .4477-1 1zm18 7h14v7h-14zm17 20.5c0 .8286-.6719 1.5-1.5 1.5h-17c-.8281 0-1.5-.6714-1.5-1.5v-3.5c0-.8286.6719-1.5 1.5-1.5s1.5.6714 1.5 1.5v2h14v-2c0-.8286.6719-1.5 1.5-1.5s1.5.6714 1.5 1.5z"/><path d="m51 16h-38c-.5523 0-1 .4477-1 1v3h40v-3c0-.5523-.4477-1-1-1z"/><path d="m46 10h-28c-.5523 0-1 .4477-1 1v3h30v-3c0-.5523-.4477-1-1-1z"/></svg>

<?xml version="1.0" encoding="utf-8"?>
<!-- Generator: Adobe Illustrator 19.1.0, SVG Export Plug-In . SVG Version: 6.00 Build 0)  -->
<svg version="1.2" baseProfile="tiny" xmlns="http://www.w3.org/2000/svg" xmlns:xlink="http://www.w3.org/1999/xlink" x="0px"
	 y="0px" width="64px" height="64px" viewBox="0 0 64 64" xml:space="preserve">
<g id="_x36_4px_Box">
	<rect fill="none" width="64" height="64"/>
</g>
<g id="Icon">
	<g>
		<path d="M7,23v33c0,0.5523,0.4477,1,1,1h48c0.5523,0,1-0.4477,1-1V23c0-0.5523-0.4477-1-1-1H8C7.4477,22,7,22.4477,7,23z M25,30
			h14v7H25V30z M42,50.5c0,0.8286-0.6719,1.5-1.5,1.5h-17c-0.8281,0-1.5-0.6714-1.5-1.5V47c0-0.8286,0.6719-1.5,1.5-1.5
			S25,46.1714,25,47v2h14v-2c0-0.8286,0.6719-1.5,1.5-1.5S42,46.1714,42,47V50.5z"/>
		<path d="M51,16H13c-0.5523,0-1,0.4477-1,1v3h40v-3C52,16.4477,51.5523,16,51,16z"/>
		<path d="M46,10H18c-0.5523,0-1,0.4477-1,1v3h30v-3C47,10.4477,46.5523,10,46,10z"/>
	</g>
</g>
</svg>
